X:1
T:Title
%%score 1 2
L:1/8
Q:1/4=95
M:6/8
K:F
V:1 treble nm="Grand Piano, Soprano"
V:2 bass nm="Choir Pad, Jesus, the Light of the World"
V:1
 [FA]2 [Fc] [Fc]2 [Fc] | [FA]2 [EG] F3 | [FA][FA]>[FA] [Fd][Fc]>[FA] | [EG]6 | %4
w: By~Arranged * * *||||
 [FA]2 [Fc] [Fc]2 [Fc] | [FA]2 [EG] F3 | [FA][FA]>[CF] [EG][EG]>[EG] | F3- F3/2 z/ [Fc] | %8
w: ||||
 [FA][Ac][Ac] [Ac]3 | [FA][Ac][Ac] [Ac]3 | [FA][Ac]>[Ac] [Bd][Ac][FA] | [DA][DG][FG] [EG]3 | %12
w: ||||
 [FA][Ac]>[Ac] [Ac][FA][CF] | [DG][DF][B,D] [DF]3 | [CA][CA]>[CF] [EG][EG]>[CG] | [CF]6- | %16
w: ||||
 [CF]3 z3 |] %17
w: |
V:2
 [F,C]2 [F,A,] [F,B,]2 [F,A,] | [C,C]2 [C,B,] [F,A,]3 | [F,C][F,C]>[F,C] [F,B,][F,A,]>[F,C] | %3
 [C,C]6 | [F,C]2 [F,A,] [F,B,]2 [F,A,] | [C,C]2 [C,B,] [F,A,]3 | %6
 [F,C][F,C]>[F,A,] [C,B,][C,B,]>[C,B,] | [F,A,]3- [F,A,]3/2 z/ [F,A,] | [F,C][F,F][F,F] [F,F]3 | %9
 [F,C][F,F][F,F] [F,F]3 | [F,C][F,F]>[F,F] [F,F][F,F][F,C] | [G,=B,][G,B,][G,D] [C,C]3 | %12
 [F,C][F,F]>[F,F] [F,F][F,C][F,A,] | [B,,B,][B,,B,][B,,F,] [B,,B,]3 | %14
 [C,F,][C,F,]>[C,A,] [C,B,][C,B,]>[C,B,] | [F,A,]6- | [F,A,]3 z3 |] %17

